dist/img/home/service_card_4.svg

<svg width="184" height="158" viewBox="0 0 184 158" fill="none" xmlns="http://www.w3.org/2000/svg">
<path d="M20.8914 99.1402L38.0063 108.321M109.945 146.911L92.5513 137.581M39.0493 89.5709L56.1642 98.7519M128.102 137.342L110.709 128.012M164.418 118.203L147.025 108.873M19.7086 117.964L38.0063 108.321M37.7976 127.668L56.0952 118.025M146.118 89.8188L133.086 96.6867M55.8865 137.371L74.1841 127.728M164.764 99.5243L147.025 108.873M74.2537 147.224L92.5513 137.581M56.1642 98.7519L38.0063 108.321M56.1642 98.7519L74.2532 108.455M38.0063 108.321L56.0952 118.025M56.0952 118.025L74.1841 127.728M56.0952 118.025L74.2532 108.455M74.1841 127.728L92.5513 137.581M74.1841 127.728L92.3421 118.159M92.5513 137.581L110.709 128.012M110.709 128.012L92.3421 118.159M110.709 128.012L128.867 118.442M92.3421 118.159L74.2532 108.455M147.025 108.873L128.867 118.442M147.025 108.873L133.086 101.395M128.867 118.442L147.025 127.514" stroke="#C8C8C8" stroke-dasharray="2 2"/>
<path d="M55.5976 79.9624L1.48047 108.482L91.9251 157L182.715 109.153L132.737 82.3431" stroke="#6F6F6F"/>
<path d="M55.5176 10.8859L79.1458 0.926636L132.723 29.014M55.5176 10.8859L110.093 39.6472M55.5176 10.8859V98.4493L110.093 127.746M132.723 29.014L110.093 39.6472M132.723 29.014V115.785L110.093 127.746M110.093 39.6472V127.746" stroke="#CA0001"/>
<path d="M102.476 44.5769L61.705 22.8322C61.0389 22.4769 60.2344 22.9596 60.2344 23.7145V43.9129C60.2344 44.6666 60.6581 45.3563 61.3304 45.6969L102.083 66.3448C102.748 66.6819 103.535 66.1985 103.535 65.4528V46.3416C103.535 45.603 103.128 44.9245 102.476 44.5769Z" stroke="#CA0001"/>
<line x1="63.5109" y1="34.8724" x2="73.9055" y2="40.4242" stroke="#C8C8C8"/>
<line x1="75.6789" y1="41.3471" x2="86.0734" y2="46.8988" stroke="#C8C8C8"/>
<line x1="88.2004" y1="47.9623" x2="98.5949" y2="53.514" stroke="#C8C8C8"/>
</svg>

<svg width="184" height="158" viewBox="0 0 184 158" fill="none" xmlns="http://www.w3.org/2000/svg"><path d="M20.891 99.14l17.115 9.181m71.939 38.59l-17.394-9.33M39.05 89.571l17.115 9.18m71.938 38.591l-17.393-9.33m53.709-9.809l-17.393-9.33M19.71 117.964l18.297-9.643m-.208 19.347l18.297-9.643m90.023-28.206l-13.032 6.868m-77.2 40.684l18.298-9.643m90.58-28.204l-17.739 9.349m-72.771 38.351l18.297-9.643m-36.387-38.83l-18.158 9.57m18.158-9.57l18.09 9.704m-36.248-.134l18.09 9.704m0 0l18.088 9.703m-18.089-9.703l18.158-9.57m-.069 19.273l18.367 9.853m-18.367-9.853l18.158-9.569m.21 19.422l18.157-9.569m0 0l-18.367-9.853m18.367 9.853l18.158-9.57m-36.525-.283l-18.089-9.704m72.772.418l-18.158 9.569m18.158-9.569l-13.939-7.478m-4.219 17.047l18.158 9.072" stroke="#C8C8C8" stroke-dasharray="2 2"/><path d="M55.598 79.962L1.48 108.482 91.925 157l90.79-47.847-49.978-26.81" stroke="#6F6F6F"/><path d="M55.518 10.886L79.146.926l53.577 28.088M55.518 10.886l54.575 28.761M55.518 10.886v87.563l54.575 29.297m22.63-98.732l-22.63 10.633m22.63-10.633v86.771l-22.63 11.961m0-88.099v88.099" stroke="#CA0001"/><path d="M102.476 44.577L61.705 22.832a1 1 0 00-1.47.883v20.198a2 2 0 001.095 1.784l40.753 20.648a1 1 0 001.452-.892V46.342a2 2 0 00-1.059-1.765z" stroke="#CA0001"/><path stroke="#C8C8C8" d="M63.511 34.872l10.395 5.552m1.773.923l10.394 5.552m2.127 1.063l10.395 5.552"/></svg>
